src/app/assets/svg/close.svg

<?xml version="1.0" encoding="UTF-8"?>
<svg width="24px" height="24px" viewBox="0 0 24 24" version="1.1" xmlns="http://www.w3.org/2000/svg" xmlns:xlink="http://www.w3.org/1999/xlink">
    <!-- Generator: Sketch 55.2 (78181) - https://sketchapp.com -->
    <title>Icon / 24px / close</title>
    <desc>Created with Sketch.</desc>
    <g id="Icon-/-24px-/-close" stroke="none" stroke-width="1" fill="none" fill-rule="evenodd">
        <rect id="Background" x="0" y="0" width="24" height="24"></rect>
        <path d="M14.12125,12 L20.53125,5.59 L21.853125,4.268125 C22.048125,4.073125 22.048125,3.75625 21.853125,3.56125 L20.43875,2.146875 C20.24375,1.951875 19.926875,1.951875 19.731875,2.146875 L12,9.87875 L4.268125,2.14625 C4.073125,1.95125 3.75625,1.95125 3.56125,2.14625 L2.14625,3.560625 C1.95125,3.755625 1.95125,4.0725 2.14625,4.2675 L9.87875,12 L2.14625,19.731875 C1.95125,19.926875 1.95125,20.24375 2.14625,20.43875 L3.560625,21.853125 C3.755625,22.048125 4.0725,22.048125 4.2675,21.853125 L12,14.12125 L18.41,20.53125 L19.731875,21.853125 C19.926875,22.048125 20.24375,22.048125 20.43875,21.853125 L21.853125,20.43875 C22.048125,20.24375 22.048125,19.926875 21.853125,19.731875 L14.12125,12 Z" id="close" fill="#545454"></path>
    </g>
</svg>

<svg xmlns="http://www.w3.org/2000/svg" width="24" height="24"><defs/><g fill="none" fill-rule="evenodd"><path d="M0 0h24v24H0z"/><path fill="#545454" d="M14.121 12l6.41-6.41 1.322-1.322a.5.5 0 000-.707L20.44 2.147a.5.5 0 00-.707 0L12 9.879 4.268 2.146a.5.5 0 00-.707 0L2.146 3.561a.5.5 0 000 .707L9.88 12l-7.733 7.732a.5.5 0 000 .707l1.415 1.414a.5.5 0 00.707 0L12 14.121l6.41 6.41 1.322 1.322a.5.5 0 00.707 0l1.414-1.414a.5.5 0 000-.707L14.121 12z"/></g></svg>
